face-man-profile.svg

<svg fill="currentColor" viewBox="0 0 24 24"><path d="M12 2A10 10 0 0 0 2 12a10 10 0 0 0 10 10 10 10 0 0 0 10-10A10 10 0 0 0 12 2m0 6.39A9.97 9.97 0 0 0 17.42 10c.78 0 1.53-.09 2.25-.26.21.71.33 1.47.33 2.26 0 4.41-3.59 8-8 8-3 0-5.61-1.66-7-4.11L6.75 14v-1A1.25 1.25 0 0 1 8 11.75 1.25 1.25 0 0 1 9.25 13v1H12m4-2.25A1.25 1.25 0 0 0 14.75 13 1.25 1.25 0 0 0 16 14.25 1.25 1.25 0 0 0 17.25 13 1.25 1.25 0 0 0 16 11.75"/></svg>

<svg  viewBox="0 0 24 24" fill="currentColor"><path  d="M12,2A10,10 0 0,0 2,12A10,10 0 0,0 12,22A10,10 0 0,0 22,12A10,10 0 0,0 12,2M12,8.39C13.57,9.4 15.42,10 17.42,10C18.2,10 18.95,9.91 19.67,9.74C19.88,10.45 20,11.21 20,12C20,16.41 16.41,20 12,20C9,20 6.39,18.34 5,15.89L6.75,14V13A1.25,1.25 0 0,1 8,11.75A1.25,1.25 0 0,1 9.25,13V14H12M16,11.75A1.25,1.25 0 0,0 14.75,13A1.25,1.25 0 0,0 16,14.25A1.25,1.25 0 0,0 17.25,13A1.25,1.25 0 0,0 16,11.75Z"/></svg>
